!!!COM:	Johannes Ockeghem
!!!CDT:	~1425-1497/02/06
!!!OTL:	Salve regina I
!!!AGN:	Motet
!!!SCT:	Ock2004
!!!SCA:	Ock2004
!!!voices:	4
**kern	**kern	**kern	**kern
*staff4	*staff3	*staff2	*staff1
*Ivox	*Ivox	*Ivox	*Ivox
*I"Bassus	*I"Tenor	*I"Altus	*I"Discantus
*I'B	*I'T	*I'A	*I'D
*>[A,B,C,D,E]	*>[A,B,C,D,E]	*>[A,B,C,D,E]	*>[A,B,C,D,E]
*>A	*>A	*>A	*>A
*clefF4	*clefF4	*clefGv2	*clefG2
*k[]	*k[]	*k[]	*k[]
*M3/1	*M3/1	*M3/1	*M3/1
*met(O)	*met(O)	*met(O)	*met(O)
=1-	=1-	=1-	=1-
0.r	0.r	1.a	0.a
.	.	2g\	.
.	.	2.f\	.
.	.	4e\	.
=2	=2	=2	=2
0.r	0.r	2e\	0.g
.	.	4d\	.
.	.	4e\	.
.	.	4f\	.
.	.	4e\	.
.	.	4d\	.
.	.	4c\	.
.	.	1B	.
=3	=3	=3	=3
0.r	0.r	1A	2a/
.	.	.	2cc\
.	.	2G/	2b\
.	.	2A/	1a
.	.	2c\	.
.	.	2B\	2g/
=4	=4	=4	=4
0.r	0.r	2A/	1a
.	.	1d	.
.	.	.	2f/
.	.	2c\	4g/
.	.	.	4a/
.	.	2d\	4b-i\
.	.	.	4a/
.	.	2e\	4g/
.	.	.	4f/
=5	=5	=5	=5
0.r	0.r	1c	2e/
.	.	.	2.a/
.	.	1r	.
.	.	.	4g/
.	.	.	2f/
.	.	1c	2g/
.	.	.	2e/
=6	=6	=6	=6
0.r	0.r	2d\	2.d/
.	.	2f\	.
.	.	.	4c/
.	.	2g\	2B/
.	.	1a	2A/
.	.	.	2c/
.	.	2b\	2d/
=7	=7	=7	=7
0.r	0.r	1a	2f/
.	.	.	2.e/
.	.	2g\	.
.	.	.	4d/
.	.	2f\	2d/
.	.	2.e\	2r
.	.	.	2g/
.	.	4d\	.
=8	=8	=8	=8
0.r	0.r	2d\	2.a/
.	.	2f\	.
.	.	.	4b\
.	.	2e\	2cc\
.	.	2d\	2.dd\
.	.	1f	.
.	.	.	4cc\
.	.	.	4b\
.	.	.	4a/
=9	=9	=9	=9
0.E	0.r	1.e	2cc\
.	.	.	2b\
.	.	.	1g
.	.	4d\	.
.	.	4B\	.
.	.	1c#	1r
=10	=10	=10	=10
0.D	0.A	1r	0a
.	.	0d	.
.	.	.	1f
=11	=11	=11	=11
0.E	0.G	1c	1.g
.	.	1B	.
.	.	.	2a/
.	.	1e	1b
=12	=12	=12	=12
1AA	1A	2e\	2cc\
.	.	1f	1a
1r	1D	.	.
.	.	2d\	2f/
[1E	1r	2.c\	2e/
.	.	.	[2g/
.	.	4B\	.
=13	=13	=13	=13
2E\]	0.r	2c\	2g/]
1D	.	4d\	1f
.	.	4c\	.
.	.	4B\	.
.	.	4A/	.
2C/	.	1A	2e/
1BB	.	.	1d
.	.	2G/	.
=14	=14	=14	=14
1AA	1A	1c	2e/
.	.	.	1f
2BB/	2D\	1d	.
1D	2F\	.	2d/
.	1E	2r	1e
2C/	.	2g\	.
=15	=15	=15	=15
1D	2D\	2f\	1A
.	2F\	2d\	.
2C/	2E\	2e\	1a
2AA/	1A	2f\	.
1BB	.	1d	2r
.	2G#i\	.	2b\
=16	=16	=16	=16
[0.AA	2A\	2f\	2.cc\
.	2.c\	2e\	.
.	.	.	4b\
.	.	0c	4a/
.	4B\	.	4g/
.	4A\	.	2a/
.	4G\	.	.
.	2A\	.	2.e/
.	2E\	.	.
.	.	.	4c/
=17	=17	=17	=17
0.AA]	2F\	2A/	2d/
.	2E\	2c\	1e
.	2C/	2e\	.
.	2D\	1d	2.a/
.	1E	.	.
.	.	.	4g/
.	.	2c#i\	2e/
=18	=18	=18	=18
0.r	0D	0d	0f
.	1G	1e	1g
=19	=19	=19	=19
1r	1A	1f	1c
0GG	0B	2.g\	0d
.	.	4f\	.
.	.	1d	.
=20	=20	=20	=20
1AA	0A	2r	0c
.	.	2.a\	.
1C	.	.	.
.	.	4g\	.
.	.	2e\	.
[1D	[1F	2f\	1r
.	.	[2d\	.
=21	=21	=21	=21
1D]	1F]	4d\]	1a
.	.	4c\	.
.	.	1f	.
0C	0G	.	2.cc\
.	.	2e\	.
.	.	.	4b\
.	.	2e\	1g
.	.	2d\	.
=22	=22	=22	=22
1r	0F	0f	0a
1D	.	.	.
[1E	1r	[1e	[1g
=23	=23	=23	=23
1E]	1G	1e]	2g/]
.	.	.	2e/
1AA	1A	1c	1e
2BB/	2D\	1r	1r
[2C/	[2E\	.	.
=24	=24	=24	=24
2C/]	2E\]	0.r	0.r
1BB	2D\	.	.
.	1C	.	.
1AA	.	.	.
.	1BB	.	.
2GG#i/	.	.	.
=25	=25	=25	=25
0AA	1AA	0c	0e
.	2r	.	.
.	1A	.	.
1r	.	1A	1f
.	4G\	.	.
.	4F\	.	.
=26	=26	=26	=26
1E	2G\	2c\	1e
.	1c	1e	.
2C/	.	.	1a
2D\	1A	2c\	.
1E	.	1B	1g
.	2G\	.	.
=27	=27	=27	=27
1AA	2r	1A	1r
.	2.c\	.	.
1r	.	1e	1a
.	4A\	.	.
.	2c\	.	.
[1E	2B\	1r	1b
.	2G\	.	.
=28	=28	=28	=28
1E]	2B\	1e	1g
.	2c\	.	.
1D	1d	1f	2r
.	.	.	2.a/
1C	1r	2e\	.
.	.	.	4g/
.	.	[2a\	2e/
=29	=29	=29	=29
1BB	1d	2a\]	2f/
.	.	2g\	2d/
1AA	2.c\	1a	1e
.	4B\	.	.
2BB/	2G\	[1g	2r
2C/	2A\	.	2e/
=30	=30	=30	=30
2BB/	1B	2g\]	2d/
1D	.	1f	2.f/
.	1A	.	.
.	.	.	4g/
2C/	.	2e\	2a/
1BB	2r	1d	2b\
.	2G\	.	2dd\
=31	=31	=31	=31
0.AA	0A	1r	0cc
.	.	1e	.
.	1c	1f	1a
=32	=32	=32	=32
1GG	1B	1g	1b
1AA	1A	1.e	1.cc
1C	1G	.	.
.	.	2c\	2b\
=33	=33	=33	=33
0.D	2A\	1c	1g
.	1c	.	.
.	.	1r	1f
.	2B\	.	.
.	2B\	2.f\	1d
.	2A\	.	.
.	.	4g\	.
=34	=34	=34	=34
0.C	1.c	2a\	2.e/
.	.	2g\	.
.	.	.	4f/
.	.	2.e\	2g/
.	2A\	.	2a/
.	.	4f\	.
.	1G	1g	1cc
=35	=35	=35	=35
0.r	1F	2.a\	2r
.	.	.	1cc
.	.	4g\	.
.	2C/	2e\	.
.	2.F\	2f\	2a/
.	.	2c\	2g/
.	4E\	.	.
.	2F\	2f\	2f/
=36	=36	=36	=36
0.r	2C/	2g\	2e/
.	1F	2.a\	2d/
.	.	.	2c/
.	.	4f\	.
.	2A\	2f\	2cc\
.	1G	2e\	2b\
.	.	2d\	[2dd\
=37	=37	=37	=37
1D	1F	1f	4dd\]
.	.	.	4cc\
.	.	.	2a/
0E	1r	2e\	2g/
.	.	2c\	2a/
.	1G	1B	1b
=38	=38	=38	=38
2.AA/	0.A	1A	1cc
4BB/	.	.	.
2C/	.	1r	1a
1D	.	.	.
.	.	[1a	1f
[2AA/	.	.	.
=39	=39	=39	=39
2AA/]	1E	2a\]	1.e
2.C/	.	2g\	.
.	2G\	0e	.
4BB/	.	.	.
2AA/	2A\	.	2f/
2GG/	2B\	.	2g/
[2AA/	2c\	.	[2c/
=40	=40	=40	=40
2AA/]	1A	2r	2c/]
2C/	.	2A/	2e/
1BB	1D	2B\	2f/
.	.	2G/	1d
1AA	1E	1A	.
.	.	.	2c#i/
=41	=41	=41	=41
0.r	0D	1r	1d
.	.	0d	1r
.	1r	.	1a
=42	=42	=42	=42
0AA	0.E	0c	1a
.	.	.	0cc
1C	.	1e	.
=43	=43	=43	=43
1D	1F	1.d	1b
0E	0G	.	0g
.	.	1c	.
.	.	4B\	.
.	.	4c\	.
=44	=44	=44	=44
1D	1r	1d	2.f/
.	.	.	4g/
0D	1A	1r	2b-i\
.	.	.	1a
.	1B	1d	.
.	.	.	2f/
=45	=45	=45	=45
1C	2c\	2G/	1e
.	1A	2c\	.
2D\	.	2A/	2f/
1E	2G\	2c\	1g
.	1B	2B\	.
[2BB/	.	[2G/	[2b\
=46	=46	=46	=46
2BB/]	2.d\	2G/]	2b\]
1D	.	2.d\	2.a/
.	4c\	.	.
.	4B\	.	.
.	4A\	4B\	4g/
2C/	1A	2c\	2e/
1BB	.	2.d\	2f/
.	2G\	.	2d/
.	.	4e\	.
=47	=47	=47	=47
2AA/	2A\	1f	2c/
2BB/	4G\	.	2d/
.	4A\	.	.
2D\	2F\	2d\	1f
1D	2D\	2f\	.
.	1E	1e	2r
2C/	.	.	[2g/
=48	=48	=48	=48
1D	2r	1A	2g/]
.	1D	.	2f#i/
[0GG	.	1B	1g
.	2E\	.	.
.	2D\	1G	[1b
.	[2G\	.	.
=49	=49	=49	=49
1GG]	4G\]	1d	2b\]
.	4F\	.	.
.	2D\	.	2a/
1AA	1C	1r	2.a/
.	.	.	4g/
1BB	2r	2.d\	1f
.	2D\	.	.
.	.	4c\	.
=50	=50	=50	=50
1C	2C/	1A	1e
.	2AA/	.	.
2BB/	2BB/	2G/	1r
2GG/	1D	1G	.
1AA	.	.	1r
.	2C/	2F#i/	.
=51	=51	=51	=51
0GG	1D	1G	0b
.	1d	1B	.
1AA	1c	1A	1cc
=52	=52	=52	=52
0.r	2B\	1G	2.dd\
.	1.d	.	.
.	.	.	4cc\
.	.	1r	4b\
.	.	.	4a/
.	.	.	2.a/
.	2c\	1A	.
.	.	.	4b\
.	[2A\	.	4a/
.	.	.	8g/L
.	.	.	8f/J
=53	=53	=53	=53
0.r	2A\]	2c\	1e
.	2G\	2B\	.
.	2c\	2A/	2a/
.	2A\	1e	1a
.	1B	.	.
.	.	2d\	2g#i/
=54	=54	=54	=54
0.AA	2r	1e	0a
.	1A	.	.
.	.	2f\	.
.	2A\	2.a\	.
.	2E\	.	1r
.	.	4g\	.
.	[2A\	2f\	.
=55	=55	=55	=55
1C	2A\]	1e	0a
.	2G\	.	.
1D	1F	1d	.
1E	1E	2c\	[1g
.	.	[2e\	.
=56	=56	=56	=56
1r	1r	2e\]	1g]
.	.	4d\	.
.	.	4c\	.
0G	1r	1B	1e
.	1B	1r	1d
=57	=57	=57	=57
1D	2A\	0.r	1a
.	1d	.	.
1E	.	.	1g
.	2c\	.	.
1D	2d\	.	1f
.	[2A\	.	.
=58	=58	=58	=58
2.C/	2A\]	0.r	1e
.	2G\	.	.
4D\	.	.	.
2E\	2E\	.	1r
1E	2G\	.	.
.	1F	.	1r
2D\	.	.	.
=59	=59	=59	=59
0E	1.E	1.B	1.g
.	2F\	2A/	2f/
1r	1G	1B	1d
=60	=60	=60	=60
0AA	1r	1c	0e
.	1A	1A	.
1BB	1D	1G	1d
=61	=61	=61	=61
1C	1E	1c	1g
0D	0F	0B	2.f/
.	.	.	4e/
.	.	.	1d
=62	=62	=62	=62
0.AA	0E	0A	0c
.	1r	2.c\	1e
.	.	4B\	.
=63	=63	=63	=63
2BB/	0.r	2G/	2d/
1C	.	1A	1e
2BB/	.	1G	2d/
1AA	.	.	1c
.	.	2F#i/	.
=64	=64	=64	=64
1GG	1D	0G	1B
1r	0E	.	1b
1AA	.	1r	1cc
=65	=65	=65	=65
1AA	1F	1c	1a
1GG	1G	1B	1b
1C	1A	1e	1a
=66	=66	=66	=66
1D	1B	1d	1f
0E	2r	2.c\	0g
.	1c	.	.
.	.	4d\	.
.	.	1e	.
.	4B\	.	.
.	4c\	.	.
=67	=67	=67	=67
1D	2d\	2A/	1f
.	2A\	2.d\	.
1BB	4B\	.	1d
.	4A\	4c\	.
.	4G\	4B\	.
.	4F\	4A/	.
1C	1E	1G	1e
=68	=68	=68	=68
2r	1A	2c\	1f
1D	.	2d\	.
.	2B\	2f\	2d/
2C/	1A	2e\	2e/
1BB	.	1d	2f/
.	2G\	.	2g/
=69	=69	=69	=69
1AA	2A\	1c	2r
.	2c\	.	2f/
1GG	1B	2.d\	1g
.	.	4e\	.
1AA	2A\	2f\	1cc
.	[2F\	[2a\	.
=70	=70	=70	=70
1BB	2F\]	2a\]	2r
.	2G\	2g\	2b\
0AA	2A\	2f\	2cc\
.	2F\	4e\	2.a/
.	.	4d\	.
.	1E	2.c#i\	.
.	.	.	4g/
.	.	.	2e/
.	.	4B\	.
=71	=71	=71	=71
1r	0.Dl	0d	0.fl
0Dl	.	.	.
.	.	1Al	.
!!LO:LB:i:g=z
=72||	=72||	=72||	=72||
*>B	*>B	*>B	*>B
*clefF4	*clefF4	*clefGv2	*clefG2
*k[]	*k[]	*k[]	*k[]
*M2/1	*M2/1	*M2/1	*M2/1
*met(C|)	*met(C|)	*met(C|)	*met(C|)
!!section: Eia ergo, advocata nostra
!!!OMD: Eia ergo, advocata nostra
0C	1.G	0r	0r
.	2A\	.	.
=73	=73	=73	=73
[0D	1B	0r	0r
.	2A\	.	.
.	[2A\	.	.
=74	=74	=74	=74
1D]	2A\]	0r	0r
.	4G\	.	.
.	4F\	.	.
1C	1E	.	.
=75	=75	=75	=75
1BB	0D	0r	0r
[1D	.	.	.
=76	=76	=76	=76
1D]	1A	0r	0r
[1E	1G	.	.
=77	=77	=77	=77
2E\]	1.B	0r	0r
2F\	.	.	.
[1G	.	.	.
.	2c\	.	.
=78	=78	=78	=78
1G]	0d	0r	0r
1D	.	.	.
=79	=79	=79	=79
0E	1B	0r	0r
.	1c	.	.
=80	=80	=80	=80
0D	1.d	0r	0r
.	2A\	.	.
=81	=81	=81	=81
0C	4B-i\	0r	0r
.	4A\	.	.
.	4G\	.	.
.	4F\	.	.
.	1E	.	.
=82	=82	=82	=82
[0D	0D	0d	[0a
=83	=83	=83	=83
0D]	0r	0f	0a]
=84	=84	=84	=84
0E	0r	1.e	[0g
.	.	2d\	.
=85	=85	=85	=85
0r	0r	0B	0g]
=86	=86	=86	=86
0A	0r	1.c	0a
.	.	2d\	.
=87	=87	=87	=87
0A	0r	1e	0cc
.	.	[1f	.
=88	=88	=88	=88
0G	0r	2f\]	0b
.	.	2d\	.
.	.	1e	.
=89	=89	=89	=89
0F	0r	1f	0a
.	.	[1d	.
=90	=90	=90	=90
1G	0r	1d]	1b
[1A	.	1c	[1cc
=91	=91	=91	=91
1A]	0r	0e	2cc\]
.	.	.	4b\
.	.	.	4a/
[1E	.	.	1g
=92	=92	=92	=92
1E]	0r	1g	0cc
[1A	.	[1f	.
=93	=93	=93	=93
1A]	0r	2f\]	1a
.	.	1e	.
1G	.	.	1b
.	.	2d\	.
=94	=94	=94	=94
0E	0r	2e\	0g
.	.	2B\	.
.	.	1c	.
=95	=95	=95	=95
0D	0r	1r	1f
.	.	1f	[1a
=96	=96	=96	=96
1r	0r	1e	2a/]
.	.	.	2g/
1C	.	1g	1e
=97	=97	=97	=97
1D	0r	1f	2d/
.	.	.	2c/
1E	.	[1e	1B
=98	=98	=98	=98
0F	0r	2e\]	1A
.	.	2d\	.
.	.	[1d	[1a
=99	=99	=99	=99
0E	0r	1d]	1a]
.	.	1c#i	1g
=100	=100	=100	=100
[0D	0D	1d	1.f
.	.	[1a	.
.	.	.	2e/
=101	=101	=101	=101
0D]	1.F	2a\]	0d
.	.	2g\	.
.	.	1f	.
.	2G\	.	.
=102	=102	=102	=102
[0AA	0A	0e	0c
=103	=103	=103	=103
0AA]	0c	1r	0A
.	.	1e	.
=104	=104	=104	=104
0BB	1B	1d	0r
.	1d	1f	.
=105	=105	=105	=105
0C	1c	0e	0a
.	[1A	.	.
=106	=106	=106	=106
0BB	1A]	0d	0b
.	1G	.	.
=107	=107	=107	=107
0AA	1r	0c	0cc
.	1A	.	.
=108	=108	=108	=108
0GG	0D	1r	1dd
.	.	1d	[1b
=109	=109	=109	=109
0r	1G	1e	2b\]
.	.	.	2a/
.	1A	1f	1a
=110	=110	=110	=110
0GG	0B	2g\	1r
.	.	2f\	.
.	.	1d	1dd
=111	=111	=111	=111
0AA	1A	1f	1cc
.	[1c	[1e	1a
=112	=112	=112	=112
0r	1c]	2e\]	1g
.	.	2d\	.
.	1A	[1f	[1cc
=113	=113	=113	=113
0C	0G	2f\]	2cc\]
.	.	2d\	2b\
.	.	1e	1g
=114	=114	=114	=114
1r	0F	0f	0a
[1D	.	.	.
=115	=115	=115	=115
1D]	0r	1f	1a
1C	.	1e	[1cc
=116	=116	=116	=116
0D	0F	1.d	2cc\]
.	.	.	2b\
.	.	.	1a
.	.	2c\	.
=117	=117	=117	=117
0E	0G	0B	1g
.	.	.	[1e
=118	=118	=118	=118
0AA	0A	1c	1e]
.	.	1A	1f
=119	=119	=119	=119
1GG	1D	1B	1g
1AA	1C	1c	1e
=120	=120	=120	=120
1BB	1.G	1d	1d
[1C	.	1e	[1c
.	2F\	.	.
=121	=121	=121	=121
1C]	1E	1A	1c]
1BB	1D	1B	1d
=122	=122	=122	=122
0C	1C	1G	2e/
.	.	.	2f/
.	[1E	[1G	[1g
=123	=123	=123	=123
0BB	1E]	1G]	2g/]
.	.	.	2f/
.	1D	1G	1d
=124	=124	=124	=124
[0AA	0E	0A	0c
=125	=125	=125	=125
0AA]	0r	1c	1a
.	.	1d	[1a
=126	=126	=126	=126
0r	[0A	1e	2a/]
.	.	.	2g/
.	.	[1c	2f/
.	.	.	2e/
=127	=127	=127	=127
0r	0A]	1c]	0e
.	.	1A	.
=128	=128	=128	=128
0r	1.E	1.c	1e
.	.	.	[1g
.	2F\	2d\	.
=129	=129	=129	=129
0r	0G	0B	2g/]
.	.	.	2a/
.	.	.	1b
=130	=130	=130	=130
0r	0A	0A	0cc
=131	=131	=131	=131
0r	0A	1.a	1cc
.	.	.	[1cc
.	.	2g\	.
=132	=132	=132	=132
0r	0A	1e	2cc\]
.	.	.	2b\
.	.	1f	1a
=133	=133	=133	=133
0r	1B	1d	1g
.	[1c	[1e	[1a
=134	=134	=134	=134
0r	1c]	1e]	1a]
.	1B	[1d	[1g
=135	=135	=135	=135
0r	0A	1d]	1g]
.	.	1c	1f#i
=136	=136	=136	=136
0r	0G	[0d	[0g
=137	=137	=137	=137
0r	0B	0d_	0g]
=138	=138	=138	=138
0D	0A	0d]	0f
=139	=139	=139	=139
1C	1r	1r	1e
[1BB	[1B	[1d	[1g
=140	=140	=140	=140
1BB]	1B]	1d]	1g]
1AA	[1c	[1e	[1a
=141	=141	=141	=141
0C	2c\]	1e]	2a/]
.	2B\	.	2g/
.	1G	1e	1e
=142	=142	=142	=142
0D	1F	0f	0d
.	[1B-i	.	.
=143	=143	=143	=143
1r	1B-]	1d	0r
[1C	[1A	[1e	.
=144	=144	=144	=144
1C]	1A]	1e]	0r
1BB	1G	1d	.
=145	=145	=145	=145
0AA	1A	0c	1.e
.	1c	.	.
.	.	.	2f/
=146	=146	=146	=146
0GG	1B	1d	0g
.	1E	1B	.
=147	=147	=147	=147
[0AA	1.F	2A/	1f
.	.	1c	.
.	.	.	1e
.	2G\	2d\	.
=148	=148	=148	=148
0AA]	0E	0e	0c
=149	=149	=149	=149
0r	0D	1f	1d
.	.	1d	1f
=150	=150	=150	=150
0AA	0A	0c	1e
.	.	.	[1a
=151	=151	=151	=151
0E	0B	0r	2a/]
.	.	.	2f/
.	.	.	1g
=152	=152	=152	=152
[0F	[0A	0c	[0a
=153	=153	=153	=153
0F]	1A]	1d	0a]
.	[1c	1c	.
=154	=154	=154	=154
0E	1c]	1.e	0g
.	1B	.	.
.	.	4d\	.
.	.	4c\	.
=155	=155	=155	=155
0E	0G	1B	1r
.	.	1c	1g
=156	=156	=156	=156
0D	0F	0d	1a
.	.	.	1b
=157	=157	=157	=157
0C	1G	1e	0cc
.	1E	1g	.
=158	=158	=158	=158
0D	0D	0f	1r
.	.	.	[1a
=159	=159	=159	=159
0AA	0C	0e	1a]
.	.	.	1cc
=160	=160	=160	=160
1r	0G	0d	0b
[1BB	.	.	.
=161	=161	=161	=161
1BB]	1B	1d	1g
[1C	[1A	[1e	[1a
=162	=162	=162	=162
1C]	1A]	2e\]	1a]
.	.	2f\	.
1BB	1G	1g	1b
=163	=163	=163	=163
0AA	0F	0a	1cc
.	.	.	1a
=164	=164	=164	=164
0GG	0G	1r	1b
.	.	[1g	[1dd
=165	=165	=165	=165
0BB	1r	1g]	2dd\]
.	.	.	2cc\
.	1d	1f	2b\
.	.	.	2a/
=166	=166	=166	=166
1.C	1e	1e	0g
.	[1e	1c	.
2BB/	.	.	.
=167	=167	=167	=167
0AA	2e\]	1e	0a
.	2d\	.	.
.	1c	1f	.
=168	=168	=168	=168
0GG	1B	0g	0b
.	[1e	.	.
=169	=169	=169	=169
0AA	1e]	1r	0cc
.	1c	[1a	.
=170	=170	=170	=170
0r	1d	2a\]	1b
.	.	1f	.
.	1B	.	1dd
.	.	2d\	.
=171	=171	=171	=171
0r	1A	1f	1cc
.	1G	1g	[1b
=172	=172	=172	=172
0r	1A	1e	2b\]
.	.	.	2a/
.	1c	[1e	[1a
=173	=173	=173	=173
0r	0B	1e]	1a]
.	.	1d	1g#i
=174	=174	=174	=174
[0AAl	1r	[0e	[0a
.	[1c	.	.
=175	=175	=175	=175
0AA_	1c]	1e]	1a]
.	1A	[1c	2g/
.	.	.	2f/
=176	=176	=176	=176
0AA_	1.A	1c]	[0el
.	.	1A	.
.	2G\	.	.
=177	=177	=177	=177
0AA]	0El	0Al	0e]
!!LO:LB:i:g=z
=178||	=178||	=178||	=178||
*>C	*>C	*>C	*>C
*clefF4	*clefF4	*clefGv2	*clefG2
*k[]	*k[]	*k[]	*k[]
*M3/1	*M3/1	*M3/1	*M3/1
*met(O)	*met(O)	*met(O)	*met(O)
!!section: O clemens
!!!OMD: O clemens
0.E	0.B	1.e	1.g
.	.	2f\	2a/
.	.	1g	1b
=179	=179	=179	=179
0.D	1.d	1.f	1b
.	.	.	2a/
.	2c\	2e\	1a
.	1A	1d	.
.	.	.	2f/
=180	=180	=180	=180
0E	0G	1c	1g
.	.	1B	1e
[1G	[1B	1G	1d
=181	=181	=181	=181
1G]	1B]	2r	1dd
.	.	1g	.
0A	0c	.	1cc
.	.	1f	.
.	.	.	1a
.	.	2e\	.
=182	=182	=182	=182
0G	0d	1.g	1b
.	.	.	1g
.	.	2f\	.
1F	1r	1d	1a
=183	=183	=183	=183
1E	1c	1e	1r
0D	1.d	0f	1.a
.	2B\	.	2g/
=184	=184	=184	=184
!LO:N:vis=0.	!LO:N:vis=0.	!LO:N:vis=0.	!LO:N:vis=0.
0.E	0.B	0.e	0.g
!!LO:LB:i:g=z
=185||	=185||	=185||	=185||
*>D	*>D	*>D	*>D
*clefF4	*clefF4	*clefGv2	*clefG2
*k[]	*k[]	*k[]	*k[]
*M3/1	*M3/1	*M3/1	*M3/1
*met(O)	*met(O)	*met(O)	*met(O)
!!section: O pia
!!!OMD: O pia
0AA	0.E	0c	0a
1C	.	1e	1g
=186	=186	=186	=186
1D	0.D	2A/	1f
.	.	2.B\	.
0BB	.	.	1d
.	.	4A/	.
.	.	1A	.
.	.	.	1r
.	.	2G#i/	.
=187	=187	=187	=187
0AA	0E	2A/	1a
.	.	2c\	.
.	.	2d\	1cc
.	.	1e	.
[1GG	[1G	.	[1b
.	.	2d\	.
=188	=188	=188	=188
1GG]	1G]	0d	1b]
0D	0A	.	1a
.	.	1r	1f
=189	=189	=189	=189
1E	0G	1B	0e
1E	.	1c	.
1D	1F	2d\	1f
.	.	2B\	.
=190	=190	=190	=190
2C/	1E	1c	2g/
1AA	.	.	2.a/
.	0D	2A/	.
.	.	.	4g/
2C/	.	1A	2a/
1BB	.	.	2b\
.	.	2G#i/	2dd\
=191	=191	=191	=191
!LO:N:vis=0.	!LO:N:vis=0.	!LO:N:vis=0.	!LO:N:vis=0.
0.AA	0.E	0.A	0.cc
!!LO:LB:i:g=z
=192||	=192||	=192||	=192||
*>E	*>E	*>E	*>E
*clefF4	*clefF4	*clefGv2	*clefG2
*k[]	*k[]	*k[]	*k[]
*M2/1	*M2/1	*M2/1	*M2/1
*met(O)	*met(O)	*met(O)	*met(O)
!!section: O dulcis
!!!OMD: O dulcis
[0E	0B	[0e	1.g
.	.	.	2e/
=193	=193	=193	=193
0E_	1c	0e]	1.g
.	[1e	.	.
.	.	.	[2b\
=194	=194	=194	=194
0E_	2e\]	1r	2b\]
.	2d\	.	2a/
.	1B	1e	1a
=195	=195	=195	=195
0E]	0c	0e	1.g
.	.	.	2f/
=196	=196	=196	=196
[0D	1r	[0f	1.b-
.	1d	.	.
.	.	.	[2a/
=197	=197	=197	=197
0D]	0d	1f]	2a/]
.	.	.	2g/
.	.	1d	2f/
.	.	.	2e/
=198	=198	=198	=198
0r	1A	0c	0e
.	1c	.	.
=199	=199	=199	=199
0r	1B	1r	0d
.	[1G	1d	.
=200	=200	=200	=200
[0E	2G\]	1e	1g
.	2A\	.	.
.	1c	1f	1a
=201	=201	=201	=201
0E]	0B	1.g	0b
.	.	4f\	.
.	.	4g\	.
=202	=202	=202	=202
[0AA	1.A	[0a	[0cc
.	2G\	.	.
=203	=203	=203	=203
0AA]	1E	0a]	0cc]
.	[1F	.	.
=204	=204	=204	=204
0BB	1F]	0d	0b
.	1G	.	.
=205	=205	=205	=205
0C	0E	0e	0g
=206	=206	=206	=206
0r	0D	1f	1r
.	.	[1d	[1a
=207	=207	=207	=207
0r	1F	1d]	1a]
.	1E	1c	1g
=208	=208	=208	=208
0BB	1D	0d	1b
.	[1G	.	1dd
=209	=209	=209	=209
0AA	1G]	0r	1cc
.	1F#i	.	1a
=210	=210	=210	=210
[0GG	0G	0d	1b
.	.	.	1g
=211	=211	=211	=211
0GG]	0B	1G	1d
.	.	[1d	[1g
=212	=212	=212	=212
0r	0A	1d]	1g]
.	.	1c	1f#i
=213	=213	=213	=213
1BB	0G	1d	0g
1C	.	1c	.
=214	=214	=214	=214
0D	1F	1A	0r
.	[1A	[1f	.
=215	=215	=215	=215
1D	2A\]	1f]	[0a
.	2G\	.	.
1C	1E	1e	.
=216	=216	=216	=216
0D	1.F	0d	0a]
.	2E\	.	.
=217	=217	=217	=217
[0E	1C	1r	[0g
.	[1G	[1c	.
=218	=218	=218	=218
0E]	2G\]	1c]	0g]
.	2A\	.	.
.	1B	[1e	.
=219	=219	=219	=219
0r	1c	1e]	1g
.	[1A	1c	1f
=220	=220	=220	=220
0r	1A]	0B	0d
.	1G#i	.	.
=221	=221	=221	=221
0AA	1.A	0c	1r
.	.	.	[1e
.	2G\	.	.
=222	=222	=222	=222
0AA	[0E	0A	2e/]
.	.	.	2c/
.	.	.	1c
=223	=223	=223	=223
1GG	0E]	1B	1r
[1AA	.	[1c	1a
=224	=224	=224	=224
1AA]	0F	1c]	0a
1BB	.	1d	.
=225	=225	=225	=225
0C	0E	0e	[0g
=226	=226	=226	=226
[0BB	1r	[0d	0g]
.	[1B	.	.
=227	=227	=227	=227
0BB_	2B\]	0d]	1r
.	2c\	.	.
.	[1d	.	1g
=228	=228	=228	=228
0BB_	2d\]	1.B	1.g
.	2c\	.	.
.	2B\	.	.
.	2A\	2c\	2a/
=229	=229	=229	=229
0BB]	1.G	0d	0b
.	2F\	.	.
=230	=230	=230	=230
[0AA	3%4AV	1f	0cc
.	.	1e	.
.	3%2GZ	.	.
=231	=231	=231	=231
0AA_	3%2EV	0c	3%4aV
.	3%2F	.	.
.	3%2EZ	.	3%2gZ
=232	=232	=232	=232
0AA_	3%2.AV	1A	3%2eV
.	.	.	3%2f
.	3G\	[1d	.
.	3%2FZ	.	[3%2aZ
=233	=233	=233	=233
0AA]	3%2DV	2d\]	3%2a]V
.	.	2B\	.
.	3%4EZ	.	3%2g
.	.	1c#i	.
.	.	.	3%2eZ
=234	=234	=234	=234
*	*	*	*^
0Dl	0Dl	0dl	0fl\	0al/
*	*	*	*v	*v
==	==	==	==
*-	*-	*-	*-
!!!RDF**kern: l=long note in original notation
!!!RDF**kern: i=editorial accidental
!!!RDF**kern: V=start of tuplet marker
!!!RDF**kern: Z=end of tuplet marker
!!!ENC:	Chris Gage 06-13-2012
!!!END:	2012/08/10/
!!!EED:	Jesse Rodin
!!!EEV:	2012/08/13/
!!!ONB:	Translated from MusicXML and edited on 2012/08/13/ by Craig Sapp
!!muse2ps: C^@{COM}^i2I150v85,85,85,150Q16c110
